icons/ao.svg

<?xml version="1.0" ?>
<svg xmlns="http://www.w3.org/2000/svg" xmlns:ev="http://www.w3.org/2001/xml-events" xmlns:xlink="http://www.w3.org/1999/xlink" baseProfile="full" height="600px" version="1.1" viewBox="-281.92714731430215 -1030.0277071211963 10808.938288735102 12297.137077139865" width="528px">
	<defs/>
	<path d="M 1101.0,10162.0 C 1062.0,10084.0 1059.0,10081.0 1006.0,10061.0 C 976.0,10050.0 940.0,10038.0 926.0,10034.0 C 907.0,10029.0 896.0,10014.0 878.0,9968.0 C 856.0,9911.0 854.0,9909.0 825.0,9913.0 C 809.0,9916.0 788.0,9921.0 779.0,9925.0 C 765.0,9930.0 761.0,9921.0 755.0,9873.0 C 749.0,9818.0 745.0,9811.0 682.0,9747.0 C 627.0,9691.0 617.0,9677.0 626.0,9662.0 C 632.0,9653.0 666.0,9591.0 703.0,9524.0 L 770.0,9404.0 L 746.0,9344.0 C 722.0,9285.0 722.0,9284.0 738.0,9216.0 L 754.0,9148.0 L 805.0,9154.0 C 832.0,9158.0 885.0,9163.0 923.0,9167.0 C 960.0,9170.0 990.0,9176.0 990.0,9179.0 C 991.0,9182.0 995.0,9284.0 1000.0,9405.0 L 1009.0,9625.0 L 984.0,9645.0 L 958.0,9666.0 L 1014.0,9683.0 C 1076.0,9703.0 1123.0,9750.0 1203.0,9877.0 C 1252.0,9954.0 1246.0,9950.0 1383.0,9975.0 L 1421.0,9982.0 L 1387.0,10024.0 C 1369.0,10046.0 1333.0,10094.0 1308.0,10130.0 C 1268.0,10186.0 1254.0,10198.0 1208.0,10215.0 C 1179.0,10226.0 1152.0,10236.0 1148.0,10238.0 C 1144.0,10240.0 1123.0,10205.0 1101.0,10162.0" fill="pink"/>
	<path d="M 3468.0,9105.0 C 3465.0,9102.0 3061.0,9098.0 2569.0,9096.0 C 1918.0,9094.0 1663.0,9089.0 1630.0,9081.0 C 1595.0,9071.0 1562.0,9071.0 1483.0,9081.0 L 1382.0,9093.0 L 1284.0,9040.0 C 1157.0,8971.0 992.0,8920.0 899.0,8920.0 C 861.0,8920.0 830.0,8918.0 830.0,8915.0 C 830.0,8912.0 850.0,8874.0 875.0,8831.0 C 900.0,8788.0 932.0,8719.0 945.0,8679.0 C 979.0,8580.0 1076.0,8434.0 1179.0,8328.0 L 1263.0,8241.0 L 1291.0,8118.0 C 1317.0,8002.0 1330.0,7972.0 1523.0,7575.0 L 1727.0,7155.0 L 1673.0,7030.0 C 1620.0,6907.0 1618.0,6904.0 1525.0,6815.0 L 1430.0,6725.0 L 1430.0,6655.0 L 1430.0,6584.0 L 1481.0,6535.0 C 1512.0,6504.0 1547.0,6454.0 1572.0,6405.0 C 1611.0,6328.0 1612.0,6324.0 1606.0,6253.0 C 1600.0,6186.0 1601.0,6178.0 1625.0,6140.0 C 1640.0,6117.0 1678.0,6043.0 1710.0,5977.0 C 1743.0,5910.0 1792.0,5813.0 1820.0,5762.0 C 1850.0,5706.0 1870.0,5656.0 1870.0,5637.0 C 1870.0,5609.0 1881.0,5596.0 1956.0,5535.0 C 2003.0,5497.0 2046.0,5460.0 2052.0,5453.0 C 2058.0,5445.0 2053.0,5427.0 2035.0,5395.0 C 2020.0,5370.0 2009.0,5348.0 2011.0,5346.0 C 2013.0,5345.0 2034.0,5329.0 2058.0,5311.0 L 2100.0,5278.0 L 2100.0,5182.0 C 2099.0,5128.0 2091.0,5042.0 2081.0,4990.0 C 2066.0,4909.0 2065.0,4870.0 2072.0,4720.0 L 2081.0,4545.0 L 2021.0,4419.0 C 1988.0,4349.0 1925.0,4238.0 1880.0,4172.0 L 1799.0,4051.0 L 1742.0,4040.0 C 1711.0,4034.0 1678.0,4027.0 1669.0,4024.0 C 1660.0,4022.0 1617.0,3982.0 1572.0,3936.0 L 1490.0,3852.0 L 1490.0,3779.0 L 1490.0,3705.0 L 1391.0,3616.0 C 1309.0,3543.0 1290.0,3520.0 1281.0,3486.0 C 1272.0,3451.0 1263.0,3441.0 1220.0,3417.0 L 1170.0,3390.0 L 1175.0,3302.0 C 1178.0,3254.0 1183.0,3181.0 1185.0,3139.0 L 1190.0,3063.0 L 1130.0,2971.0 L 1070.0,2880.0 L 1064.0,2717.0 L 1058.0,2555.0 L 984.0,2290.0 C 943.0,2144.0 882.0,1935.0 848.0,1825.0 L 788.0,1624.0 L 736.0,1604.0 C 705.0,1591.0 686.0,1578.0 687.0,1569.0 C 688.0,1561.0 710.0,1415.0 734.0,1244.0 L 780.0,933.0 L 764.0,736.0 C 756.0,627.0 750.0,528.0 752.0,515.0 C 755.0,492.0 758.0,493.0 847.0,550.0 C 898.0,583.0 945.0,610.0 950.0,610.0 C 956.0,610.0 991.0,590.0 1028.0,565.0 L 1096.0,520.0 L 1142.0,536.0 C 1186.0,550.0 1191.0,550.0 1227.0,532.0 L 1265.0,512.0 L 1355.0,557.0 C 1404.0,582.0 1475.0,624.0 1511.0,650.0 C 1569.0,692.0 1589.0,700.0 1684.0,721.0 C 1779.0,741.0 1800.0,742.0 1857.0,733.0 C 1916.0,722.0 1929.0,716.0 1974.0,672.0 C 2002.0,645.0 2070.0,597.0 2125.0,565.0 C 2197.0,524.0 2242.0,490.0 2287.0,442.0 L 2348.0,376.0 L 2407.0,389.0 C 2439.0,397.0 2488.0,413.0 2515.0,425.0 L 2566.0,447.0 L 4025.0,459.0 C 5272.0,470.0 5485.0,470.0 5494.0,458.0 C 5500.0,450.0 5560.0,381.0 5627.0,304.0 L 5749.0,163.0 L 5819.0,150.0 C 5889.0,137.0 5890.0,137.0 5963.0,168.0 L 6037.0,199.0 L 6166.0,165.0 C 6237.0,146.0 6315.0,130.0 6340.0,130.0 C 6380.0,130.0 6388.0,126.0 6403.0,100.0 L 6421.0,70.0 L 6474.0,110.0 L 6527.0,150.0 L 6598.0,119.0 L 6670.0,87.0 L 6747.0,103.0 L 6825.0,119.0 L 7007.0,59.0 L 7188.0,-1.0 L 7283.0,39.0 L 7378.0,78.0 L 7484.0,44.0 C 7542.0,25.0 7597.0,10.0 7607.0,10.0 C 7636.0,10.0 9023.0,230.0 9043.0,238.0 C 9058.0,244.0 9036.0,260.0 8946.0,309.0 C 8832.0,373.0 8830.0,374.0 8778.0,454.0 C 8739.0,515.0 8654.0,607.0 8428.0,835.0 L 8130.0,1135.0 L 8100.0,1225.0 L 8069.0,1315.0 L 8076.0,2528.0 L 8083.0,3740.0 L 8109.0,3740.0 C 8123.0,3740.0 8443.0,3731.0 8820.0,3720.0 C 9197.0,3709.0 9518.0,3700.0 9533.0,3700.0 C 9561.0,3700.0 9561.0,3700.0 9506.0,3763.0 L 9450.0,3825.0 L 9450.0,3903.0 L 9450.0,3982.0 L 9503.0,4043.0 C 9587.0,4142.0 9583.0,4129.0 9566.0,4206.0 C 9548.0,4290.0 9539.0,4413.0 9539.0,4585.0 C 9538.0,4715.0 9538.0,4715.0 9580.0,4820.0 L 9622.0,4925.0 L 9599.0,4970.0 C 9579.0,5009.0 9575.0,5035.0 9570.0,5155.0 L 9565.0,5295.0 L 9532.0,5233.0 C 9514.0,5198.0 9497.0,5170.0 9493.0,5170.0 C 9489.0,5170.0 9412.0,5191.0 9323.0,5216.0 L 9160.0,5263.0 L 9105.0,5221.0 C 9037.0,5169.0 9018.0,5163.0 8910.0,5156.0 C 8845.0,5151.0 8814.0,5154.0 8779.0,5167.0 C 8734.0,5183.0 8731.0,5182.0 8703.0,5162.0 L 8673.0,5141.0 L 8581.0,5165.0 C 8530.0,5179.0 8487.0,5190.0 8486.0,5190.0 C 8484.0,5190.0 8480.0,5177.0 8477.0,5162.0 C 8472.0,5137.0 8461.0,5129.0 8390.0,5102.0 C 8345.0,5084.0 8305.0,5070.0 8299.0,5070.0 C 8294.0,5070.0 8290.0,5099.0 8290.0,5135.0 C 8290.0,5171.0 8281.0,5234.0 8269.0,5276.0 C 8258.0,5317.0 8250.0,5353.0 8252.0,5355.0 C 8253.0,5356.0 8274.0,5367.0 8296.0,5378.0 L 8337.0,5399.0 L 8332.0,5495.0 C 8329.0,5551.0 8332.0,5613.0 8339.0,5648.0 C 8351.0,5704.0 8351.0,5707.0 8296.0,5876.0 L 8240.0,6048.0 L 8147.0,6133.0 L 8053.0,6219.0 L 8006.0,6343.0 L 7958.0,6467.0 L 7994.0,6538.0 C 8028.0,6605.0 8029.0,6612.0 8019.0,6652.0 C 8009.0,6690.0 8012.0,6719.0 8051.0,6906.0 L 8096.0,7116.0 L 8063.0,7280.0 C 8032.0,7437.0 8028.0,7446.0 7993.0,7482.0 L 7957.0,7519.0 L 7963.0,7605.0 C 7968.0,7679.0 7974.0,7700.0 8011.0,7771.0 L 8054.0,7853.0 L 8034.0,7949.0 L 8015.0,8045.0 L 7544.0,8042.0 L 7073.0,8039.0 L 7066.0,8117.0 C 7060.0,8187.0 7062.0,8201.0 7083.0,8250.0 C 7130.0,8357.0 7136.0,8349.0 7018.0,8343.0 C 6924.0,8338.0 6913.0,8336.0 6897.0,8314.0 L 6878.0,8290.0 L 6594.0,8290.0 C 6438.0,8290.0 6310.0,8288.0 6310.0,8285.0 C 6310.0,8283.0 6319.0,8266.0 6329.0,8249.0 L 6349.0,8217.0 L 6319.0,8176.0 L 6290.0,8134.0 L 6299.0,8030.0 L 6307.0,7925.0 L 6279.0,7883.0 C 6259.0,7854.0 6240.0,7840.0 6218.0,7835.0 C 6169.0,7824.0 6169.0,7823.0 6202.0,7769.0 L 6234.0,7719.0 L 6198.0,7652.0 C 6170.0,7600.0 6163.0,7577.0 6167.0,7551.0 L 6173.0,7517.0 L 5959.0,7523.0 C 5730.0,7530.0 5740.0,7528.0 5705.0,7584.0 C 5689.0,7610.0 5553.0,7595.0 5524.0,7563.0 C 5505.0,7542.0 5494.0,7540.0 5414.0,7540.0 C 5327.0,7540.0 5324.0,7539.0 5265.0,7500.0 L 5205.0,7460.0 L 5009.0,7460.0 L 4813.0,7460.0 L 4720.0,7618.0 C 4667.0,7706.0 4585.0,7827.0 4530.0,7895.0 C 4477.0,7961.0 4412.0,8046.0 4387.0,8085.0 L 4340.0,8155.0 L 4340.0,8253.0 L 4340.0,8351.0 L 4241.0,8541.0 L 4142.0,8730.0 L 4163.0,8811.0 L 4183.0,8892.0 L 4136.0,8932.0 C 4090.0,8971.0 4090.0,8972.0 4090.0,9034.0 L 4090.0,9097.0 L 4023.0,9103.0 C 3942.0,9111.0 3476.0,9112.0 3468.0,9105.0" fill="pink"/>
</svg>

<?xml version="1.0" standalone="no"?>
<!DOCTYPE svg PUBLIC "-//W3C//DTD SVG 20010904//EN"
 "http://www.w3.org/TR/2001/REC-SVG-20010904/DTD/svg10.dtd">
<svg version="1.0" xmlns="http://www.w3.org/2000/svg"
 width="1024.000000pt" height="1024.000000pt" viewBox="0 0 1024.000000 1024.000000"
 preserveAspectRatio="xMidYMid meet">
<metadata>
Created by potrace 1.10, written by Peter Selinger 2001-2011
</metadata>
<g transform="translate(0.000000,1024.000000) scale(0.100000,-0.100000)"
fill="#000000" stroke="none">
<path d="M1101 10162 c-39 -78 -42 -81 -95 -101 -30 -11 -66 -23 -80 -27 -19
-5 -30 -20 -48 -66 -22 -57 -24 -59 -53 -55 -16 3 -37 8 -46 12 -14 5 -18 -4
-24 -52 -6 -55 -10 -62 -73 -126 -55 -56 -65 -70 -56 -85 6 -9 40 -71 77 -138
l67 -120 -24 -60 c-24 -59 -24 -60 -8 -128 l16 -68 51 6 c27 4 80 9 118 13 37
3 67 9 67 12 1 3 5 105 10 226 l9 220 -25 20 -26 21 56 17 c62 20 109 67 189
194 49 77 43 73 180 98 l38 7 -34 42 c-18 22 -54 70 -79 106 -40 56 -54 68
-100 85 -29 11 -56 21 -60 23 -4 2 -25 -33 -47 -76z"/>
<path d="M3468 9105 c-3 -3 -407 -7 -899 -9 -651 -2 -906 -7 -939 -15 -35 -10
-68 -10 -147 0 l-101 12 -98 -53 c-127 -69 -292 -120 -385 -120 -38 0 -69 -2
-69 -5 0 -3 20 -41 45 -84 25 -43 57 -112 70 -152 34 -99 131 -245 234 -351
l84 -87 28 -123 c26 -116 39 -146 232 -543 l204 -420 -54 -125 c-53 -123 -55
-126 -148 -215 l-95 -90 0 -70 0 -71 51 -49 c31 -31 66 -81 91 -130 39 -77 40
-81 34 -152 -6 -67 -5 -75 19 -113 15 -23 53 -97 85 -163 33 -67 82 -164 110
-215 30 -56 50 -106 50 -125 0 -28 11 -41 86 -102 47 -38 90 -75 96 -82 6 -8
1 -26 -17 -58 -15 -25 -26 -47 -24 -49 2 -1 23 -17 47 -35 l42 -33 0 -96 c-1
-54 -9 -140 -19 -192 -15 -81 -16 -120 -9 -270 l9 -175 -60 -126 c-33 -70 -96
-181 -141 -247 l-81 -121 -57 -11 c-31 -6 -64 -13 -73 -16 -9 -2 -52 -42 -97
-88 l-82 -84 0 -73 0 -74 -99 -89 c-82 -73 -101 -96 -110 -130 -9 -35 -18 -45
-61 -69 l-50 -27 5 -88 c3 -48 8 -121 10 -163 l5 -76 -60 -92 -60 -91 -6 -163
-6 -162 -74 -265 c-41 -146 -102 -355 -136 -465 l-60 -201 -52 -20 c-31 -13
-50 -26 -49 -35 1 -8 23 -154 47 -325 l46 -311 -16 -197 c-8 -109 -14 -208
-12 -221 3 -23 6 -22 95 35 51 33 98 60 103 60 6 0 41 -20 78 -45 l68 -45 46
16 c44 14 49 14 85 -4 l38 -20 90 45 c49 25 120 67 156 93 58 42 78 50 173 71
95 20 116 21 173 12 59 -11 72 -17 117 -61 28 -27 96 -75 151 -107 72 -41 117
-75 162 -123 l61 -66 59 13 c32 8 81 24 108 36 l51 22 1459 12 c1247 11 1460
11 1469 -1 6 -8 66 -77 133 -154 l122 -141 70 -13 c70 -13 71 -13 144 18 l74
31 129 -34 c71 -19 149 -35 174 -35 40 0 48 -4 63 -30 l18 -30 53 40 53 40 71
-31 72 -32 77 16 78 16 182 -60 181 -60 95 40 95 39 106 -34 c58 -19 113 -34
123 -34 29 0 1416 220 1436 228 15 6 -7 22 -97 71 -114 64 -116 65 -168 145
-39 61 -124 153 -350 381 l-298 300 -30 90 -31 90 7 1213 7 1212 26 0 c14 0
334 -9 711 -20 377 -11 698 -20 713 -20 28 0 28 0 -27 63 l-56 62 0 78 0 79
53 61 c84 99 80 86 63 163 -18 84 -27 207 -27 379 -1 130 -1 130 41 235 l42
105 -23 45 c-20 39 -24 65 -29 185 l-5 140 -33 -62 c-18 -35 -35 -63 -39 -63
-4 0 -81 21 -170 46 l-163 47 -55 -42 c-68 -52 -87 -58 -195 -65 -65 -5 -96
-2 -131 11 -45 16 -48 15 -76 -5 l-30 -21 -92 24 c-51 14 -94 25 -95 25 -2 0
-6 -13 -9 -28 -5 -25 -16 -33 -87 -60 -45 -18 -85 -32 -91 -32 -5 0 -9 29 -9
65 0 36 -9 99 -21 141 -11 41 -19 77 -17 79 1 1 22 12 44 23 l41 21 -5 96 c-3
56 0 118 7 153 12 56 12 59 -43 228 l-56 172 -93 85 -94 86 -47 124 -48 124
36 71 c34 67 35 74 25 114 -10 38 -7 67 32 254 l45 210 -33 164 c-31 157 -35
166 -70 202 l-36 37 6 86 c5 74 11 95 48 166 l43 82 -20 96 -19 96 -471 -3
-471 -3 -7 78 c-6 70 -4 84 17 133 47 107 53 99 -65 93 -94 -5 -105 -7 -121
-29 l-19 -24 -284 0 c-156 0 -284 -2 -284 -5 0 -2 9 -19 19 -36 l20 -32 -30
-41 -29 -42 9 -104 8 -105 -28 -42 c-20 -29 -39 -43 -61 -48 -49 -11 -49 -12
-16 -66 l32 -50 -36 -67 c-28 -52 -35 -75 -31 -101 l6 -34 -214 6 c-229 7
-219 5 -254 61 -16 26 -152 11 -181 -21 -19 -21 -30 -23 -110 -23 -87 0 -90
-1 -149 -40 l-60 -40 -196 0 -196 0 -93 158 c-53 88 -135 209 -190 277 -53 66
-118 151 -143 190 l-47 70 0 98 0 98 -99 190 -99 189 21 81 20 81 -47 40 c-46
39 -46 40 -46 102 l0 63 -67 6 c-81 8 -547 9 -555 2z"/>
</g>
</svg>
